icons/desktop/16/svg/lock-document-16.svg

<svg width="16" height="16" viewBox="0 0 16 16" fill="none" xmlns="http://www.w3.org/2000/svg">
<path fill-rule="evenodd" clip-rule="evenodd" d="M12.5 8.99902C13.251 8.99902 13.961 9.02908 14.627 9.08008C15.406 9.14008 16 9.79712 16 10.5781V14.4209C16 15.2058 15.3902 15.8617 14.6074 15.9209C13.8564 15.9769 13.151 16 12.5 16C11.749 16 11.039 15.9699 10.373 15.9189C9.59405 15.8589 9 15.2019 9 14.4209V10.5781C9 9.79327 9.60978 9.13733 10.3926 9.07812C11.1436 9.02212 11.849 8.99902 12.5 8.99902ZM11.125 13.125C10.78 13.125 10.5 13.405 10.5 13.75C10.5 14.095 10.78 14.375 11.125 14.375H13.875C14.22 14.375 14.5 14.095 14.5 13.75C14.5 13.405 14.22 13.125 13.875 13.125H11.125ZM11.125 10.625C10.78 10.625 10.5 10.905 10.5 11.25C10.5 11.595 10.78 11.875 11.125 11.875H13.875C14.22 11.875 14.5 11.595 14.5 11.25C14.5 10.905 14.22 10.625 13.875 10.625H11.125Z" fill="black"/>
<path fill-rule="evenodd" clip-rule="evenodd" d="M6 0C8.20921 0 10 1.79079 10 4V6.30762C10.7693 6.52404 11.389 7.07278 11.7246 7.7793C11.2487 7.79229 10.7727 7.79702 10.2998 7.83301C10.1649 7.84302 10.0361 7.87239 9.90723 7.90137C9.76223 7.81037 9.6028 7.74077 9.4248 7.71777C8.29388 7.57279 7.14193 7.5 6 7.5C4.866 7.5 3.72252 7.57187 2.60352 7.71387C1.97473 7.79306 1.5 8.32815 1.5 8.95801V13.042C1.5 13.671 1.9622 14.2042 2.5752 14.2822C4.2831 14.5012 6.02905 14.5524 7.75195 14.4414L7.75293 14.4404C7.75601 14.9763 7.91653 15.4804 8.18945 15.9053C7.46145 15.9613 6.72998 15.999 6.00098 15.999C4.79598 15.999 3.57972 15.9215 2.38672 15.7695C1.02588 15.5964 0.000988577 14.4239 0.000976562 13.041V8.95703C0.000976562 7.71782 0.835926 6.64821 2 6.31348V4C2 1.79079 3.79079 0 6 0ZM6 1.5C4.61921 1.5 3.5 2.61921 3.5 4V6.11133C5.15582 5.96659 6.83909 5.96618 8.5 6.11133V4C8.5 2.61921 7.38079 1.5 6 1.5Z" fill="black"/>
</svg>

<!-- This Source Code Form is subject to the terms of the Mozilla Public
   - License, v. 2.0. If a copy of the MPL was not distributed with this
   - file, You can obtain one at http://mozilla.org/MPL/2.0/. -->
<svg xmlns="http://www.w3.org/2000/svg" width="16" height="16" fill="context-fill" fill-opacity="context-fill-opacity" viewBox="0 0 16 16">
    <path fill-rule="evenodd" d="M12.5 8.999c.751 0 1.461.03 2.127.081.779.06 1.373.717 1.373 1.498v3.843c0 .785-.61 1.44-1.393 1.5a28.4 28.4 0 0 1-4.234-.002A1.496 1.496 0 0 1 9 14.42v-3.843c0-.785.61-1.44 1.393-1.5C11.143 9.022 11.849 9 12.5 9m-1.375 4.126a.625.625 0 0 0 0 1.25h2.75a.625.625 0 0 0 0-1.25zm0-2.5a.625.625 0 0 0 0 1.25h2.75a.625.625 0 0 0 0-1.25z" clip-rule="evenodd" />
    <path fill-rule="evenodd" d="M6 0a4 4 0 0 1 4 4v2.308c.77.216 1.389.765 1.725 1.471-.476.013-.952.018-1.425.054-.135.01-.264.04-.393.068a1.2 1.2 0 0 0-.482-.183 27 27 0 0 0-6.821-.004A1.26 1.26 0 0 0 1.5 8.958v4.084c0 .629.462 1.162 1.075 1.24 1.708.22 3.454.27 5.177.16v-.002c.004.536.165 1.04.437 1.465-.728.056-1.459.094-2.188.094-1.205 0-2.421-.078-3.614-.23A2.746 2.746 0 0 1 0 13.042V8.957A2.76 2.76 0 0 1 2 6.313V4a4 4 0 0 1 4-4m0 1.5A2.5 2.5 0 0 0 3.5 4v2.111a29 29 0 0 1 5 0V4A2.5 2.5 0 0 0 6 1.5" clip-rule="evenodd" />
</svg>
